X:13
T:Polska efter Olof Andersson
R:polska K1
H:efter Olof Andersson
A:V\"armland
Z:hn-k1-13
M:3/4
K:A
[A2E2] a2 fg|(3efg af bg|[A2E2] a2 fg|(3efg ae cA|
[A2E2] a2 fg|(3efg af bg|[A2E2] a2 fg|(3efg a2 A2-:|
|:A2 AB/c/ (3dBd|Sd<c c>A (3cAc|Sc<B B>c (3dBd|Sd<c c>A (3cAc|
Sc<B BA A>G|S(3ABc e3 e|e2 f2 (3dBd|Sd<c c>A (3cAc|
Sc<B B>c (3dBd|Sd<c c>A (3cAc|Sc<B BA A>G|S(3ABc A4:|
<end>
<start>
